X:17474
T:Tim Maloneys
S:Paraic
R:Reel
O:Ireland
M:4/4
K:G
DG (3GGG Bd (3ddd | de dB ge dB |\
G2BG DG BG | c2 Bc/B/ AG ED |\
DG (3GGG Bd (3ddd | de dB d2 gf | \
ef ed Bd ef | ge dB AG ED ::\
eg (3ggg bg (3ggg | eB BA B2 ef |\
g2 bg ag ed | de dB AG ED |\
eg (3ggg bg (3ggg | eB BA B2 gf | \
ef ed Bd ef | ge dB AG E2 :|**
